packages/sights/assets/overlays/WWZsroCu.svg

<svg width="500" height="375" viewBox="0 0 500 375" fill="none" xmlns="http://www.w3.org/2000/svg">
<path d="M185.701 5L123.641 79.55" stroke="white" stroke-miterlimit="10"/>
<path d="M100.701 108.33C100.701 108.33 71.3512 151.78 66.5312 164.05C63.3482 167.219 59.5502 169.703 55.3712 171.35L52.7012 174.25" stroke="white" stroke-miterlimit="10"/>
<path d="M40.9414 190.53C40.9414 190.53 26.8714 205.21 22.2914 217.47C22.2914 217.47 13.0914 230.77 7.77142 251.64" stroke="white" stroke-miterlimit="10"/>
<path d="M22.2902 217.47C22.2902 217.47 42.9202 182.12 29.7802 254.89L28.2202 259.47C28.2202 259.47 20.6002 292.65 31.3102 311.29C31.3102 311.29 431.13 176.29 477.9 148.11C477.9 148.11 421.5 46.94 429.06 5" stroke="white" stroke-miterlimit="10"/>
<path d="M455.512 103.26L27.3812 301.07" stroke="white" stroke-miterlimit="10"/>
<path d="M336.431 5V29L333.371 34.81L342.241 87.4C342.241 87.4 358.361 139.55 364.361 145.4" stroke="white" stroke-miterlimit="10"/>
<path d="M493.771 311.29L286.441 327.19L284.381 323.75C284.381 323.75 217.381 323.98 213.061 327.19L211.001 329.72C211.001 329.72 78.6912 322.22 56.3812 320.51" stroke="white" stroke-miterlimit="10"/>
<path d="M58.9511 301.91C58.9511 301.91 59.8911 337.29 32.8311 369.5" stroke="white" stroke-miterlimit="10"/>
<path d="M20.402 220.49C20.402 220.49 30.162 208.83 27.702 262.05" stroke="white" stroke-miterlimit="10"/>
<path d="M27.3809 233.26L24.2509 234.33C24.2509 234.33 12.9609 245.1 7.00085 264.21" stroke="white" stroke-miterlimit="10"/>
<path d="M285.311 325.3C285.311 325.3 280.481 362.66 258.161 365.56H235.381C235.381 365.56 215.231 363.65 212.161 328.3" stroke="white" stroke-miterlimit="10"/>
<path d="M128.221 80.3106L126.541 86.1206L120.041 94.9906C120.041 94.9906 114.391 90.4006 111.941 92.5406C111.941 92.5406 104.381 99.0406 103.991 104.24C104.808 106.331 106.398 108.028 108.431 108.98C108.431 108.98 104.381 113.56 102.431 113.98C100.518 110.362 100.081 106.144 101.211 102.21C101.211 102.21 106.331 87.0006 117.211 81.5006C117.221 81.5406 122.571 78.1006 128.221 80.3106Z" stroke="white" stroke-miterlimit="10"/>
<path d="M106.622 98.3398C106.622 98.3398 110.342 99.4998 111.712 98.8098C111.712 98.8098 114.082 101.56 113.392 103.93L108.392 108.98" stroke="white" stroke-miterlimit="10"/>
<path d="M43.3406 181.49C43.3406 181.49 47.2406 181.86 48.1206 183.49L41.2006 190.83C39.4806 189.72 39.1406 186.7 39.1406 186.7C39.1406 180.9 44.8706 176.27 44.8706 176.27C48.9606 173.13 54.4306 174.7 54.4306 174.7C55.0806 175.39 52.4306 179.02 52.4306 179.02C43.2906 177.34 39.1306 187.02 39.1306 187.02" stroke="white" stroke-miterlimit="10"/>
<path d="M100.701 115.05C100.701 115.05 85.4212 175.56 79.2312 203.76L68.7012 222.56" stroke="white" stroke-miterlimit="10"/>
<path d="M373.57 5L336.43 29C336.43 29 54.7003 226.61 29.7803 254.89" stroke="white" stroke-miterlimit="10"/>
</svg>

<svg width="500" height="375" fill="none" xmlns="http://www.w3.org/2000/svg"><path d="m185.701 5-62.06 74.55M100.701 108.33s-29.35 43.45-34.17 55.72a32.93 32.93 0 0 1-11.16 7.3l-2.67 2.9M40.941 190.53s-14.07 14.68-18.65 26.94c0 0-9.2 13.3-14.52 34.17" stroke="#fff" stroke-miterlimit="10"/><path d="M22.29 217.47s20.63-35.35 7.49 37.42l-1.56 4.58s-7.62 33.18 3.09 51.82c0 0 399.82-135 446.59-163.18 0 0-56.4-101.17-48.84-143.11M455.512 103.26 27.382 301.07" stroke="#fff" stroke-miterlimit="10"/><path d="M336.431 5v24l-3.06 5.81 8.87 52.59s16.12 52.15 22.12 58M493.771 311.29l-207.33 15.9-2.06-3.44s-67 .23-71.32 3.44l-2.06 2.53s-132.31-7.5-154.62-9.21" stroke="#fff" stroke-miterlimit="10"/><path d="M58.951 301.91s.94 35.38-26.12 67.59M20.402 220.49s9.76-11.66 7.3 41.56" stroke="#fff" stroke-miterlimit="10"/><path d="m27.38 233.26-3.13 1.07S12.96 245.1 7 264.21M285.311 325.3s-4.83 37.36-27.15 40.26h-22.78s-20.15-1.91-23.22-37.26M128.221 80.31l-1.68 5.81-6.5 8.87s-5.65-4.59-8.1-2.45c0 0-7.56 6.5-7.95 11.7a8.751 8.751 0 0 0 4.44 4.74s-4.05 4.58-6 5a15.83 15.83 0 0 1-1.22-11.77s5.12-15.21 16-20.71c.01.04 5.36-3.4 11.01-1.19Z" stroke="#fff" stroke-miterlimit="10"/><path d="M106.622 98.34s3.72 1.16 5.09.47c0 0 2.37 2.75 1.68 5.12l-5 5.05M43.34 181.49s3.9.37 4.78 2l-6.92 7.34c-1.72-1.11-2.06-4.13-2.06-4.13 0-5.8 5.73-10.43 5.73-10.43 4.09-3.14 9.56-1.57 9.56-1.57.65.69-2 4.32-2 4.32-9.14-1.68-13.3 8-13.3 8M100.701 115.05s-15.28 60.51-21.47 88.71l-10.53 18.8" stroke="#fff" stroke-miterlimit="10"/><path d="m373.57 5-37.14 24S54.7 226.61 29.78 254.89" stroke="#fff" stroke-miterlimit="10"/></svg>
